img/about/skill_git.svg

<svg height="40" viewBox="0 0 40 40" width="40" xmlns="http://www.w3.org/2000/svg"><path d="m39.0150538 18.24-17.2554839-17.25462366c-.9935484-.99397849-2.6051613-.99397849-3.5995699 0l-3.5827957 3.58365592 4.5449462 4.54494623c1.0563441-.35698924 2.2675269-.11741935 3.1092473.72473119.8468818.84731182 1.0843011 2.06881722.7182796 3.12903222l4.3810753 4.3806452c1.060215-.3655914 2.2825806-.1290323 3.1290322.7187097 1.1827957 1.1827957 1.1827957 3.0993548 0 4.2830107-1.1836559 1.1832258-3.100215 1.1832258-4.284301 0-.8894624-.8903226-1.1096774-2.1978494-.6584947-3.2937634l-4.0860215-4.0855914v10.7513978c.2881721.1427957.5604301.3329033.8004301.5729033 1.1827957 1.1827957 1.1827957 3.0993548 0 4.2834408-1.1827956 1.1823656-3.1006451 1.1823656-4.2825806 0-1.1827957-1.1845161-1.1827957-3.1010752 0-4.2834408.2924731-.292043.6309677-.5131183.9922581-.6610753v-10.8516129c-.3612904-.147957-.6989248-.3668817-.9922581-.6610753-.895914-.8954838-1.1113978-2.2107527-.652043-3.3109677l-4.4804301-4.48129034-11.83225808 11.83096774c-.99397849.9948387-.99397849 2.6064516 0 3.6004301l17.25634408 17.2550538c.9935484.9939785 2.6047312.9939785 3.5995699 0l17.1750538-17.1750538c.9939785-.9939785.9939785-2.6064516 0-3.6004301z" fill="#f05133"/></svg>

<?xml version="1.0" encoding="UTF-8"?>
<svg width="40px" height="40px" viewBox="0 0 40 40" version="1.1" xmlns="http://www.w3.org/2000/svg" xmlns:xlink="http://www.w3.org/1999/xlink">
    <!-- Generator: Sketch 63.1 (92452) - https://sketch.com -->
    <title>skill_git</title>
    <desc>Created with Sketch.</desc>
    <g id="Portfolio" stroke="none" stroke-width="1" fill="none" fill-rule="evenodd">
        <g id="202003" transform="translate(-66.000000, -3309.000000)" fill="#F05133" fill-rule="nonzero">
            <g id="skill_git" transform="translate(66.000000, 3309.000000)">
                <path d="M39.0150538,18.24 L21.7595699,0.985376344 C20.7660215,-0.00860215054 19.1544086,-0.00860215054 18.16,0.985376344 L14.5772043,4.56903226 L19.1221505,9.11397849 C20.1784946,8.75698925 21.3896774,8.99655914 22.2313978,9.83870968 C23.0782796,10.6860215 23.3156989,11.9075269 22.9496774,12.9677419 L27.3307527,17.3483871 C28.3909677,16.9827957 29.6133333,17.2193548 30.4597849,18.0670968 C31.6425806,19.2498925 31.6425806,21.1664516 30.4597849,22.3501075 C29.276129,23.5333333 27.3595699,23.5333333 26.1754839,22.3501075 C25.2860215,21.4597849 25.0658065,20.1522581 25.5169892,19.0563441 L21.4309677,14.9707527 L21.4309677,25.7221505 C21.7191398,25.8649462 21.9913978,26.0550538 22.2313978,26.2950538 C23.4141935,27.4778495 23.4141935,29.3944086 22.2313978,30.5784946 C21.0486022,31.7608602 19.1307527,31.7608602 17.9488172,30.5784946 C16.7660215,29.3939785 16.7660215,27.4774194 17.9488172,26.2950538 C18.2412903,26.0030108 18.5797849,25.7819355 18.9410753,25.6339785 L18.9410753,14.7823656 C18.5797849,14.6344086 18.2421505,14.4154839 17.9488172,14.1212903 C17.0529032,13.2258065 16.8374194,11.9105376 17.2967742,10.8103226 L12.8163441,6.32903226 L0.984086022,18.16 C-0.00989247312,19.1548387 -0.00989247312,20.7664516 0.984086022,21.7604301 L18.2404301,39.0154839 C19.2339785,40.0094624 20.8451613,40.0094624 21.84,39.0154839 L39.0150538,21.8404301 C40.0090323,20.8464516 40.0090323,19.2339785 39.0150538,18.24 Z" id="Path"></path>
            </g>
        </g>
    </g>
</svg>
